build/img/icons/drop.svg

<svg width="21" height="26" viewBox="0 0 21 26" fill="none" xmlns="http://www.w3.org/2000/svg">
<path d="M10.5781 0.5C3.91563 6.1875 0.578125 11.1 0.578125 15.25C0.578125 21.475 5.32812 25.5 10.5781 25.5C15.8281 25.5 20.5781 21.475 20.5781 15.25C20.5781 11.1 17.2406 6.1875 10.5781 0.5ZM10.5781 23C6.39062 23 3.07812 19.7875 3.07812 15.25C3.07812 12.325 5.51562 8.45 10.5781 3.825C15.6406 8.45 18.0781 12.3125 18.0781 15.25C18.0781 19.7875 14.7656 23 10.5781 23ZM5.36562 15.5C5.82812 15.5 6.20312 15.825 6.29062 16.275C6.80312 19.05 9.14062 20 10.8406 19.8625C11.3781 19.8375 11.8281 20.2625 11.8281 20.8C11.8281 21.3 11.4281 21.7125 10.9281 21.7375C8.26562 21.9 5.15313 20.375 4.44063 16.5875C4.4189 16.4535 4.42655 16.3163 4.46303 16.1856C4.49952 16.0548 4.56397 15.9335 4.65193 15.8301C4.7399 15.7267 4.84927 15.6436 4.9725 15.5866C5.09572 15.5296 5.22986 15.5001 5.36562 15.5Z" fill="#5CC773"/>
</svg>

<svg width="21" height="26" fill="none" xmlns="http://www.w3.org/2000/svg">
    <path d="M10.578.5c-6.662 5.688-10 10.6-10 14.75 0 6.225 4.75 10.25 10 10.25s10-4.025 10-10.25c0-4.15-3.337-9.063-10-14.75zm0 22.5c-4.187 0-7.5-3.212-7.5-7.75 0-2.925 2.438-6.8 7.5-11.425 5.063 4.625 7.5 8.488 7.5 11.425 0 4.538-3.312 7.75-7.5 7.75zm-5.212-7.5c.462 0 .837.325.925.775.512 2.775 2.85 3.725 4.55 3.588a.94.94 0 0 1 .987.937c0 .5-.4.912-.9.938-2.662.162-5.775-1.363-6.487-5.15a.937.937 0 0 1 .925-1.088z" fill="#5CC773"/>
</svg>
